X: 105
T:Pasodoble dos Enxebres
M:2/4
L:1/8
Q:300
C:Trad
S:Rep. "Os Enxebres" de Arbo
R:Pasodoble
K:C
CD | EC DE | FD EF |G4-| G2 CD | EC DE |FD EF| 
G4- | G2 AG | D"F"c D2- | DE FG | C"F"GC2- |C F {G}FE | DC B,C | DE FD |
C4-|  C"F"G :| |: CD | E2 C2| D{E}D- DB,| D2 B,D | C"F"G CD | E2C2| D{E}
D- DE| 
FG AG | E2 CD | EF GF | D2 B,C | DE FD | C4- | C"F"G :||

